!!!COM: Johannes Brahms
!!!CNT: Deutscher
!!!TXO: Deutsche
!!!OTL: An die Tauben
!!!OPS: Op. 63
!!!ONM: No. 4
!!!LYR: Schenkendorf
!!!ONB: Original key: C Major
!!!ENC: Ayako Kataoka        
!!!EED: Leigh VanHandel
!!!YOR: C.F. Peters, Brahms Lieder fu2r eine Singstimme mit Klavierbegleitung, Band III, ausgabe fu2r tiefere Stimme
!!!ODT: 1874/
!!NB: Vocal melody and text only encoded.
**kern	**silbe
*clefG2	*
*k[f#c#g#]	*
*M4/4	*
*MM[vivace]	*
=3	=3
{4.c#	{Fliegt
8c#	nur
4.e	aus,
8e	ge-
=4	=4
(8a	lieb-
8cc#)	|
(8b	-te
8a)	|
4a	Tau-
4e}	-ben!}
=5	=5
{4.e	{Euch
8e	als
4.b	Bo-
8e	-ten
=6	=6
(8b	send
8e)	|
(8b	ich
8cc#)	|
2a}	hin;}
=7	=7
{4.c#	{sagt
8c#	ihr,
4.e	und
8e	sie
=8	=8
(8a	wird
8cc#)	|
(8b	euch
8a)	|
4a	glau-
4d#}	-ben,}
=9	=9
{4.b	{dass
8e	ich
4.ccn	krank
8a	vor
=10	=10
4.gn	Lie-
8fn	-be
2e}	bin,}
=11	=11
{4.b	{dass
8b	ich
([2ee	krank
=12	=12
8ee]	|
8dd)	|
(8a	vor
8dd)	|
4.cc#	Lie-
8b	-be
=13	=13
2a}	bin.}
2r	.
!!skipping m. 14
=15	=15
{4.cc#	{Ihr
8b	ko2nnt
4a	file-
4f#	-gen,
=16	=16
4.cc#	Ihr
8b	ko2nnt
4a	ei-
4f#}	-len,}
=17	=17
{4g#	{Tau-
4b	-ben,
4.ee	froh
8a#	berg-
=18	=18
4.cc#	-ab
8an	und
2g#}	an;}
=19	=19
{4.ddn	{ich
8cc#	muss
4b	in
4g#	der
=20	=20
4.a	Frem-
8g#	-de
4f#	wei-
4d#}	-len,}
=21	=21
{4e	{e-
4g#	-wig
4cc#	ein
4f##	ge-
=22	=22
4.an	qu2al-
8g#	-ter
2e}	Mann,}
=23	=23
{4e	{e-
4a	-wig
4cc#	ein
4ee	ge-
=24	=24
2.ddn	qua2l-
4b#	-ter
=25	=25
2cc#}	Mann.}
2r	.
=31	=31
{4.c#	{Auch
8c#	mein
4.e	Brief-
8e	-lein
=32	=32
(8a	soll
8cc#)	|
(8b	noch
8a)	|
4a	ge-
4e}	-hen}
=33	=33
{4.e	{heut
8e	zu
4.b	ihr,
8e	mein
=34	=34
(8b	Lie-
8e)	|
(8b	bes-
8cc#)	|
2a}	-gruss,}
=35	=35
{4.c#	{soll
8c#	sie
4.e	su-
8e	-chen
=36	=36
(8a	auf
8cc#)	|
(8b	den
8a)	|
4a	Ho2-
4d#}	-hen,}
=37	=37
{4.b	{an
8e	dem
4.ccn	scho2-
8a	-nen,
=38	=38
4.gn	gru2-
8fn	-nen
2e}	Fluss,}
=39	=39
{4.b	{an
8b	dem
([2ee	scho2-
=40	=40
8ee]	|
8dd)	|
(8a	-nen,
8dd)	|
4.cc#	gru2-
8b	-nen
=41	=41
2a}	Fluss.}
2r	.
=45	=45
{4f#	{Wird
4a	sie
4.dd	von
8g#	den
=46	=46
4.b	Ber-
8gn	-gen
4e#	stei-
4f#}	-gen}
=47	=47
{4.b	{end-
8a	-lich
4gn	in
4e	das
=48	=48
4.b	Nie-
8a	-der-
2gn}	-land?}
=49	=49
{4f#	{Wird
4a	sich
4.dd	mir
8g#	die
=50	=50
4a	Son-
4ccn	-ne
4.ffn	zei-
8b}	-gen,}
=51	=51
{4dd	{die
4ccn	zu
4.b	lan-
8b	-ge
=52	=52
4.a-	schon
8a-	ver-
2gn}	-schwand?}
=53	=53
4r	.
{4an	{zu
4b-	lan-
4b-}	-ge,}
=54	=54
4r	.
{4dd	{zu
(4ee	lang
[4dd	|
=55	=55
4dd]	|
2bn)	|
4a	ver-
=56	=56
4g#}	-schwand?}
4r	.
2r	.
!!skipping m. 57
=58	=58
{4.e	{Vo2-
8e	-gel,
4.b	Brie-
8b	-fe,
=59	=59
(8cc#	Lie-
8ee)	|
(8dd	-bes-
8cc#)	|
4cc#	-bo-
4e	-ten,
=60	=60
4.b	Lied
8b	und
4.dd	Seuf-
8b	-zer,
=61	=61
(8dd	sagt
8b)	|
(8dd	ihr's
8ee)	|
2cc#}	hell:}
=62	=62
{4.a#	{Su-
8a#	-che
4.cc#	ihn
8cc#	im
=63	=63
(8cc#	Reich
8ee)	|
(8dd	der
8cc#)	|
4ee	To-
4dd	-ten,
=64	=64
4.dd	Lieb-
8b	-chen,
4.dd	o-
8b	-der
=65	=65
(8dd	kom-
8b)	|
(8a#	-me
8gn)	|
2g#}	schnell,}
=67	=67
{4.b	{Lieb-
8b	-chen,
([2ee	o-
=68	=68
8ee]	|
8dd)	|
(8a	-der
8dd)	|
4.cc#	kom-
8b	-me
=69	=69
2a}	schnell.}
2r	.
*-	*-
